X:2001
T: Grips Exercise Note to scale
O:Kevin Fraser
Z:Kevin Fraser
B: Logan's Complete Tutor
B: http://svenax.net/site/canntaireachd/6/
Q:1/4=120
K:HP
M:4/4
L:1/4
R:March
M:4/4
T: Grips from A to the other notes of the scale
|: {g}A{GdG}A {g}A{GdG}B |{g}A{GdG}c {g}A{GdG}d | {g}A{GdG}e {g}A{GdG}f |{g}A{GdG}g A{GdG}a :| 
w: hin dren     hin dro    |  hin dro      hin dra |   hin dre    hin barhe | hin drhi  hin drI/darI :|
T: Grips from A to the other notes of the scale Held-Cut
|: {g}A{GdG}>A {g}A{GdG}>B |{g}A{GdG}>c {g}A{GdG}>d | {g}A{GdG}>e {g}A{GdG}>f |{g}A{GdG}>g A{GdG}>a :| 
w: hin dren     hin dro    |  hin dro      hin dra |   hin dre    hin drhe | hin drhi  hin drI/darI :|
T: Grips from A to the other notes of the scale Cut-Held
|: {g}A{GdG}<A {g}A{GdG}<B |{g}A{GdG}<c {g}A{GdG}<d | {g}A{GdG}<e {g}A{GdG}<f |{g}A{GdG}<g A{GdG}<a :| 
w: hin dren     hin dro    |  hin dro      hin dra |   hin dre    hin drhe | hin drhi  hin drI/darI :|
W:
T: Grips from B to the other notes of the scale
|: {g}B{GdG}G| {g}B{GdG}A {g}B{GdG}B |{g}B{GdG}c {g}B{GdG}d | {g}B{GdG}e {g}B{GdG}f |{g}B{GdG}g A{GdG}a :| 
T: Grips from C to the other notes of the scale
|: {g}c{GdG}G| {g}c{GdG}A {g}c{GdG}B |{g}c{GdG}c {g}c{GdG}d | {g}c{GdG}e {g}c{GdG}f |{g}c{GdG}g A{GdG}a :| 
T: Grips from D to the other notes of the scale
|: {g}d{GdG}G| {g}d{GdG}A {g}d{GdG}B |{g}d{GdG}c {g}d{GdG}d | {g}d{GdG}e {g}d{GdG}f |{g}d{GdG}g A{GdG}a :| 
W: When the grip is played FROM D the B gracenote is substituted for the D gracenote
W: habain,hatro, hadro, hadada, hademda, habare
W: 
T: Grips from E to the other notes of the scale
|: {g}e{GdG}G| {g}e{GdG}A {g}e{GdG}B |{g}e{GdG}c {g}e{GdG}d | {g}e{GdG}e {g}e{GdG}f |{g}e{GdG}g A{GdG}a :| 
T: Grips from F to the other notes of the scale
|: {g}f{GdG}G| {g}f{GdG}A {g}f{GdG}B |{g}f{GdG}c {g}f{GdG}d | {g}f{GdG}e {g}f{GdG}f |{g}f{GdG}g A{GdG}a :| 
T: Grips from High G to the other notes of the scale
|: {g}g{GdG}G| {g}g{GdG}A {g}g{GdG}B |{g}g{GdG}c {g}g{GdG}d | {g}g{GdG}e {g}g{GdG}f |{g}g{GdG}g A{GdG}a :| 
T: Grips from High A to the other notes of the scale
|: {g}a{GdG}G| {g}a{GdG}A {g}a{GdG}B |{g}a{GdG}c {g}a{GdG}d | {g}a{GdG}e {g}a{GdG}f |{g}a{GdG}g A{GdG}a :| 
W:
W: Repeat the 2nd and 3rd exercises on A on the other notes (Timing)
W:
